X:1
T:Richard O'Dwyers
L:1/8
R:Reel
K:D

|:dFFF AFED | FGAB ABde | fAAA FAde | f2a2 fedB | AFFF ABde | fAAA BAF | BCde fabf | afeg fede :|
|:faaa afde | f2af fedB | ABdef2g | afdf edBA | faaa bafb | afde  f2fe |dAAA BAFB | ABdf edB :|
